X:2019 
T:Shannon Rea
N:See also with same title KV238 and 276
C:Charles Faragher, The Four Roads 
O:Isle of Man
S:Traditional
Z:Clague collection
B:Kiaull Vannin #19 
L:1/4
M:4/4 
Q:100 
K:D 
D|DA B c|dd A A|GF E D|D3D|F FA c|d dc d|ed c B|A3 A| 
dd cd|d dc d|e dc B|A3 F|AA B c|d dD D|DE DE|D3|| 
